biglinux-webapps/usr/share/bigbashview/bcc/apps/biglinux-webapps/icons/Network.svg

<svg xmlns="http://www.w3.org/2000/svg" viewBox="0 0 122.88 90.04" style="enable-background:new 0 0 122.88 90.04" xml:space="preserve"><path d="M2.08 26.62H74.4c1.14 0 2.08.94 2.08 2.08v47.91c0 1.14-.93 2.08-2.08 2.08H2.08C.94 78.69 0 77.75 0 76.61V28.7c0-1.14.94-2.08 2.08-2.08zm105.66 19.24h-2.82v-5.64h2.82l.25 5.64h-.25zm-69.37-26.8h-2.82v-5.64h2.82v5.64zm-1.54-8.46h-1.28V7.91H41.32v2.82h-4.36l-.13-.13zm7.31.13V7.91h5.64v2.82h-5.64zm8.47 0V7.91h5.64v2.82h-5.64zm8.46 0V7.91h5.64v2.82h-5.64zm8.47 0V7.91h5.64v2.82h-5.64zm8.46 0V7.91h5.64v2.82H78zm7.84 57.68h4.94v-2.82h-4.94l.25 2.82h-.25zm7.76 0v-2.82h5.64v2.82H93.6zm8.47 0v-2.82h4.26v.03h1.41v2.79h-5.67zm5.67-5.62h-2.82v-5.64h2.82l.25 5.64h-.25zm0-8.46h-2.82v-5.64h2.82l.25 5.64h-.25zm11.5-30.03c.05 0 .1 0 .14.01.31-.54.59-1.11.85-1.71.01-.01.01-.02.02-.03.38-.91.68-1.85.87-2.83.15-.76.25-1.53.28-2.33h-4.58c-.08 2.33-.78 4.62-2.07 6.88l4.49.01zm-.8 1.46h-4.61c-1.4 2.03-3.29 4.03-5.65 6.01.37-.05.74-.11 1.1-.18.99-.2 1.94-.49 2.86-.89.93-.4 1.8-.87 2.61-1.41.81-.54 1.55-1.15 2.24-1.84.53-.53 1.02-1.09 1.45-1.69zm-14.2 6.01c-2.36-1.98-4.25-3.98-5.65-6.01h-4.61c.44.6.93 1.16 1.46 1.69.69.69 1.43 1.3 2.24 1.84.8.54 1.67 1.01 2.61 1.41.01.01.02.01.03.02.91.38 1.85.68 2.83.87.36.07.73.13 1.1.18h-.01zM93.01 24.3h4.64c-1.29-2.26-1.99-4.56-2.07-6.88H91c.04.8.13 1.57.28 2.33.2.99.49 1.94.89 2.86.25.59.53 1.15.84 1.69zM91 15.95h4.61c.17-2.28.93-4.57 2.28-6.88h-4.88c-.31.54-.59 1.1-.84 1.69-.01.01-.01.02-.02.03-.38.91-.68 1.85-.87 2.83-.15.76-.25 1.53-.28 2.33zm2.96-8.34h4.87c1.39-2 3.22-4.01 5.5-6.03-.41.05-.81.11-1.2.19-.99.2-1.94.49-2.86.89-.93.4-1.8.87-2.61 1.41-.81.54-1.55 1.15-2.24 1.84-.53.52-1.02 1.08-1.46 1.7zm14.1-6.04c2.29 2.02 4.12 4.03 5.5 6.03h4.87c-.44-.6-.93-1.16-1.46-1.69-.69-.69-1.43-1.3-2.24-1.84-.8-.54-1.67-1.01-2.61-1.41-.01-.01-.02-.01-.03-.02-.91-.38-1.85-.68-2.83-.87-.4-.08-.8-.14-1.2-.2zm11.33 7.5h-4.88c1.35 2.31 2.11 4.6 2.28 6.88h4.61c-.04-.8-.13-1.57-.28-2.33-.2-.99-.49-1.94-.89-2.86-.25-.59-.53-1.15-.84-1.69zM102.85.33c1.08-.22 2.2-.33 3.35-.33s2.26.11 3.35.33c1.07.21 2.1.53 3.11.96.01 0 .03.01.04.02 1 .43 1.95.95 2.84 1.54.89.59 1.71 1.27 2.46 2.02.76.75 1.43 1.57 2.02 2.46.6.89 1.11 1.84 1.54 2.84.44 1.02.76 2.07.98 3.15.22 1.08.33 2.2.33 3.35s-.11 2.26-.33 3.35c-.21 1.07-.53 2.1-.96 3.11 0 .01-.01.03-.02.04a17.62 17.62 0 0 1-1.54 2.84c-.59.89-1.27 1.71-2.02 2.46-.75.76-1.57 1.43-2.46 2.02-.89.6-1.84 1.11-2.84 1.54-1.02.44-2.07.76-3.15.98-1.08.22-2.2.33-3.35.33s-2.26-.11-3.35-.33c-1.07-.21-2.1-.53-3.11-.96-.01 0-.03-.01-.04-.02-1-.43-1.95-.95-2.84-1.54-.89-.59-1.71-1.27-2.46-2.02-.76-.75-1.43-1.57-2.02-2.46-.6-.89-1.11-1.84-1.54-2.84a15.96 15.96 0 0 1-.98-3.15c-.22-1.08-.33-2.2-.33-3.35s.11-2.26.33-3.35c.21-1.07.53-2.1.96-3.11 0-.01.01-.03.02-.04.43-1.01.95-1.95 1.54-2.84.59-.89 1.27-1.71 2.02-2.46.75-.76 1.57-1.43 2.46-2.02.89-.6 1.84-1.11 2.84-1.54 1.01-.44 2.07-.76 3.15-.98zm4.08 2.19V7.6h4.84c-1.27-1.68-2.88-3.37-4.84-5.08zm0 6.55v6.88h8.4c-.19-2.26-1.03-4.55-2.53-6.88h-5.87zm0 8.34v6.88h6.11c1.45-2.28 2.22-4.57 2.31-6.88h-8.42zm0 8.35v5.14c2.07-1.7 3.77-3.42 5.09-5.14h-5.09zm-1.46 5.14v-5.14h-5.09c1.31 1.72 3.01 3.44 5.09 5.14zm0-6.6v-6.88h-8.43c.09 2.31.87 4.6 2.31 6.88h6.12zm0-8.35V9.07H99.6c-1.5 2.33-2.34 4.62-2.53 6.88h8.4zm0-8.34V2.52c-1.96 1.71-3.57 3.4-4.84 5.08h4.84v.01zM28.81 81.56h18.86c.05 3.26 1.39 6.18 5.03 8.48H23.78c2.91-2.11 5.04-4.68 5.03-8.48zm9.43-9.88c1.47 0 2.67 1.2 2.67 2.67s-1.2 2.67-2.67 2.67-2.67-1.2-2.67-2.67a2.67 2.67 0 0 1 2.67-2.67zM6.25 30.54h63.97c1.01 0 1.84.83 1.84 1.84v35.8c0 1.01-.83 1.84-1.84 1.84H6.25c-1.01 0-1.84-.83-1.84-1.84v-35.8c0-1.02.83-1.84 1.84-1.84z" style="fill-rule:evenodd;clip-rule:evenodd"/></svg>

<svg xmlns="http://www.w3.org/2000/svg" xmlns:xlink="http://www.w3.org/1999/xlink" viewBox="0 0 122.88 90.04" style="enable-background:new 0 0 122.88 90.04" xml:space="preserve">
	<style type="text/css">.st0{fill-rule:evenodd;clip-rule:evenodd;}</style>
	<g>
		<path class="st0" d="M2.08,26.62H74.4c1.14,0,2.08,0.94,2.08,2.08v47.91c0,1.14-0.93,2.08-2.08,2.08H2.08 C0.94,78.69,0,77.75,0,76.61V28.7C0,27.56,0.94,26.62,2.08,26.62L2.08,26.62L2.08,26.62z M107.74,45.86h-2.82v-5.64h2.82l0.25,5.64 H107.74z M38.37,19.06h-2.82v-5.64h2.82V19.06L38.37,19.06z M36.83,10.6h-1.28V9.32V7.91h1.41h4.36v2.82h-4.36L36.83,10.6 L36.83,10.6z M44.14,10.73V7.91h5.64v2.82H44.14L44.14,10.73z M52.61,10.73V7.91h5.64v2.82H52.61L52.61,10.73z M61.07,10.73V7.91 h5.64v2.82H61.07L61.07,10.73z M69.54,10.73V7.91h5.64v2.82H69.54L69.54,10.73z M78,10.73V7.91h5.64v2.82H78L78,10.73z M85.84,68.41h4.94v-2.82h-4.94l0.25,2.82H85.84z M93.6,68.41v-2.82h5.64v2.82h-5.4H93.6z M102.07,68.41v-2.82h4.26v0.03h1.41V67 v1.41h-1.41H102.07L102.07,68.41z M107.74,62.79h-2.82v-5.64h2.82l0.25,5.64H107.74z M107.74,54.33h-2.82v-5.64h2.82l0.25,5.64 H107.74z M119.24,24.3c0.05,0,0.1,0,0.14,0.01c0.31-0.54,0.59-1.11,0.85-1.71c0.01-0.01,0.01-0.02,0.02-0.03 c0.38-0.91,0.68-1.85,0.87-2.83c0.15-0.76,0.25-1.53,0.28-2.33h-4.58c-0.08,2.33-0.78,4.62-2.07,6.88L119.24,24.3L119.24,24.3 L119.24,24.3z M118.44,25.76h-4.61c-1.4,2.03-3.29,4.03-5.65,6.01c0.37-0.05,0.74-0.11,1.1-0.18c0.99-0.2,1.94-0.49,2.86-0.89 c0.93-0.4,1.8-0.87,2.61-1.41c0.81-0.54,1.55-1.15,2.24-1.84C117.52,26.92,118.01,26.36,118.44,25.76L118.44,25.76L118.44,25.76z M104.24,31.77c-2.36-1.98-4.25-3.98-5.65-6.01h-4.61c0.44,0.6,0.93,1.16,1.46,1.69c0.69,0.69,1.43,1.3,2.24,1.84 c0.8,0.54,1.67,1.01,2.61,1.41c0.01,0.01,0.02,0.01,0.03,0.02c0.91,0.38,1.85,0.68,2.83,0.87c0.36,0.07,0.73,0.13,1.1,0.18H104.24 L104.24,31.77z M93.01,24.3h4.64c-1.29-2.26-1.99-4.56-2.07-6.88H91c0.04,0.8,0.13,1.57,0.28,2.33c0.2,0.99,0.49,1.94,0.89,2.86 C92.42,23.2,92.7,23.76,93.01,24.3L93.01,24.3z M91,15.95h4.61c0.17-2.28,0.93-4.57,2.28-6.88h-4.88c-0.31,0.54-0.59,1.1-0.84,1.69 c-0.01,0.01-0.01,0.02-0.02,0.03c-0.38,0.91-0.68,1.85-0.87,2.83C91.13,14.38,91.03,15.15,91,15.95L91,15.95z M93.96,7.61h4.87 c1.39-2,3.22-4.01,5.5-6.03c-0.41,0.05-0.81,0.11-1.2,0.19c-0.99,0.2-1.94,0.49-2.86,0.89c-0.93,0.4-1.8,0.87-2.61,1.41 c-0.81,0.54-1.55,1.15-2.24,1.84C94.89,6.43,94.4,6.99,93.96,7.61L93.96,7.61L93.96,7.61z M108.06,1.57 c2.29,2.02,4.12,4.03,5.5,6.03h4.87c-0.44-0.6-0.93-1.16-1.46-1.69c-0.69-0.69-1.43-1.3-2.24-1.84c-0.8-0.54-1.67-1.01-2.61-1.41 c-0.01-0.01-0.02-0.01-0.03-0.02c-0.91-0.38-1.85-0.68-2.83-0.87C108.86,1.69,108.46,1.63,108.06,1.57L108.06,1.57L108.06,1.57z M119.39,9.07h-4.88c1.35,2.31,2.11,4.6,2.28,6.88h4.61c-0.04-0.8-0.13-1.57-0.28-2.33c-0.2-0.99-0.49-1.94-0.89-2.86 C119.98,10.17,119.7,9.61,119.39,9.07L119.39,9.07L119.39,9.07z M102.85,0.33c1.08-0.22,2.2-0.33,3.35-0.33 c1.15,0,2.26,0.11,3.35,0.33c1.07,0.21,2.1,0.53,3.11,0.96c0.01,0,0.03,0.01,0.04,0.02c1,0.43,1.95,0.95,2.84,1.54 c0.89,0.59,1.71,1.27,2.46,2.02c0.76,0.75,1.43,1.57,2.02,2.46c0.6,0.89,1.11,1.84,1.54,2.84c0.44,1.02,0.76,2.07,0.98,3.15 c0.22,1.08,0.33,2.2,0.33,3.35c0,1.15-0.11,2.26-0.33,3.35c-0.21,1.07-0.53,2.1-0.96,3.11c0,0.01-0.01,0.03-0.02,0.04 c-0.43,1.01-0.95,1.95-1.54,2.84c-0.59,0.89-1.27,1.71-2.02,2.46c-0.75,0.76-1.57,1.43-2.46,2.02c-0.89,0.6-1.84,1.11-2.84,1.54 c-1.02,0.44-2.07,0.76-3.15,0.98c-1.08,0.22-2.2,0.33-3.35,0.33c-1.15,0-2.26-0.11-3.35-0.33c-1.07-0.21-2.1-0.53-3.11-0.96 c-0.01,0-0.03-0.01-0.04-0.02c-1-0.43-1.95-0.95-2.84-1.54c-0.89-0.59-1.71-1.27-2.46-2.02c-0.76-0.75-1.43-1.57-2.02-2.46 c-0.6-0.89-1.11-1.84-1.54-2.84c-0.44-1.02-0.76-2.07-0.98-3.15c-0.22-1.08-0.33-2.2-0.33-3.35c0-1.15,0.11-2.26,0.33-3.35 c0.21-1.07,0.53-2.1,0.96-3.11c0-0.01,0.01-0.03,0.02-0.04c0.43-1.01,0.95-1.95,1.54-2.84c0.59-0.89,1.27-1.71,2.02-2.46 c0.75-0.76,1.57-1.43,2.46-2.02c0.89-0.6,1.84-1.11,2.84-1.54C100.71,0.87,101.77,0.55,102.85,0.33L102.85,0.33z M106.93,2.52v5.08 h4.84C110.5,5.92,108.89,4.23,106.93,2.52L106.93,2.52z M106.93,9.07v6.88h8.4c-0.19-2.26-1.03-4.55-2.53-6.88H106.93L106.93,9.07z M106.93,17.41v6.88h6.11c1.45-2.28,2.22-4.57,2.31-6.88H106.93L106.93,17.41z M106.93,25.76v5.14c2.07-1.7,3.77-3.42,5.09-5.14 H106.93L106.93,25.76z M105.47,30.9v-5.14h-5.09C101.69,27.48,103.39,29.2,105.47,30.9L105.47,30.9z M105.47,24.3v-6.88h-8.43 c0.09,2.31,0.87,4.6,2.31,6.88H105.47L105.47,24.3z M105.47,15.95V9.07H99.6c-1.5,2.33-2.34,4.62-2.53,6.88H105.47L105.47,15.95z M105.47,7.61V2.52c-1.96,1.71-3.57,3.4-4.84,5.08H105.47L105.47,7.61z M28.81,81.56h18.86c0.05,3.26,1.39,6.18,5.03,8.48H23.78 C26.69,87.93,28.82,85.36,28.81,81.56L28.81,81.56L28.81,81.56z M38.24,71.68c1.47,0,2.67,1.2,2.67,2.67c0,1.47-1.2,2.67-2.67,2.67 c-1.47,0-2.67-1.2-2.67-2.67C35.57,72.88,36.76,71.68,38.24,71.68L38.24,71.68z M6.25,30.54h63.97c1.01,0,1.84,0.83,1.84,1.84v35.8 c0,1.01-0.83,1.84-1.84,1.84H6.25c-1.01,0-1.84-0.83-1.84-1.84v-35.8C4.41,31.36,5.24,30.54,6.25,30.54L6.25,30.54L6.25,30.54z"/>
	</g>
</svg>
